assets/img/braze_icons/layers-two-01.svg

<svg fill="none" height="24" viewBox="0 0 24 24" width="24" xmlns="http://www.w3.org/2000/svg"><g fill="#801ed7"><path clip-rule="evenodd" d="m11.7234 3.57577c.1828-.0343.3704-.0343.5532 0 .2164.04061.4095.13914.5028.18675.0096.0049.0182.00927.0256.01297l9.6422 4.82111c.3388.1694.5528.51566.5528.89443s-.214.72507-.5528.89447l-9.6422 4.8211c-.0074.0037-.016.008-.0256.0129-.0933.0477-.2864.1462-.5028.1868-.1828.0343-.3704.0343-.5532 0-.2164-.0406-.4095-.1391-.5028-.1868-.0096-.0049-.0182-.0092-.0256-.0129l-9.64221-4.8211c-.33879-.1694-.55279-.5157-.55279-.89447s.214-.72503.55279-.89443l9.64221-4.82111c.0074-.0037.016-.00807.0256-.01297.0933-.04761.2864-.14614.5028-.18675z" fill-rule="evenodd"/><path d="m2.52769 13.109-.9749.4875c-.33879.1694-.55279.5157-.55279.8944 0 .3788.214.7251.55279.8945l9.64221 4.8211.0256.0129c.0933.0476.2864.1462.5028.1868.1828.0343.3704.0343.5532 0 .2164-.0406.4095-.1391.5028-.1868l.0256-.0129 9.6422-4.8211c.3388-.1694.5528-.5157.5528-.8945 0-.3787-.214-.725-.5528-.8944l-.9749-.4875-7.7729 3.8865-.0118.0059c-.0488.0245-.1689.0848-.2891.1371-.1603.0698-.42.1711-.7531.2336-.4265.08-.8643.08-1.2908 0-.3331-.0625-.5928-.1638-.7531-.2336-.1202-.0523-.2403-.1126-.2891-.1371l-.0118-.0059z"/></g></svg>

<svg width="24" height="24" viewBox="0 0 24 24" fill="none" xmlns="http://www.w3.org/2000/svg">
<path fill-rule="evenodd" clip-rule="evenodd" d="M11.7234 3.57577C11.9062 3.54147 12.0938 3.54147 12.2766 3.57577C12.493 3.61638 12.6861 3.71491 12.7794 3.76252C12.789 3.76742 12.7976 3.77179 12.805 3.77549L22.4472 8.5966C22.786 8.766 23 9.11226 23 9.49103C23 9.8698 22.786 10.2161 22.4472 10.3855L12.805 15.2066C12.7976 15.2103 12.789 15.2146 12.7794 15.2195C12.6861 15.2672 12.493 15.3657 12.2766 15.4063C12.0938 15.4406 11.9062 15.4406 11.7234 15.4063C11.507 15.3657 11.3139 15.2672 11.2206 15.2195C11.211 15.2146 11.2024 15.2103 11.195 15.2066L1.55279 10.3855C1.214 10.2161 1 9.8698 1 9.49103C1 9.11226 1.214 8.766 1.55279 8.5966L11.195 3.77549C11.2024 3.77179 11.211 3.76742 11.2206 3.76252C11.3139 3.71491 11.507 3.61638 11.7234 3.57577Z" fill="#801ED7"/>
<path d="M2.52769 13.109L1.55279 13.5965C1.214 13.7659 1 14.1122 1 14.4909C1 14.8697 1.214 15.216 1.55279 15.3854L11.195 20.2065L11.2206 20.2194C11.3139 20.267 11.507 20.3656 11.7234 20.4062C11.9062 20.4405 12.0938 20.4405 12.2766 20.4062C12.493 20.3656 12.6861 20.2671 12.7794 20.2194L12.805 20.2065L22.4472 15.3854C22.786 15.216 23 14.8697 23 14.4909C23 14.1122 22.786 13.7659 22.4472 13.5965L21.4723 13.109L13.6994 16.9955L13.6876 17.0014C13.6388 17.0259 13.5187 17.0862 13.3985 17.1385C13.2382 17.2083 12.9785 17.3096 12.6454 17.3721C12.2189 17.4521 11.7811 17.4521 11.3546 17.3721C11.0215 17.3096 10.7618 17.2083 10.6015 17.1385C10.4813 17.0862 10.3612 17.0259 10.3124 17.0014L10.3006 16.9955L2.52769 13.109Z" fill="#801ED7"/>
</svg>
